X:1
T:Title
%%score { ( 1 3 4 ) | ( 2 5 ) }
L:1/8
M:4/4
K:Eb
V:1 treble nm="Grand Piano"
V:3 treble 
V:4 treble 
V:2 bass 
V:5 bass 
V:1
 z4 z2[Q:1/4=110] B,2 | E2 E2 G2 B,2 | E2 E2 G4 | [DF][_D=E][=DF][_EG] [FA]2 [Dc]2 |[M:3/4] B4 G2 | %5
[M:1/4] B,2 |[M:4/4] E2 E2 G2 B,2 | E2 E2 G4 | [DF][_D=E][=DF][_Ec] [DB]2 [B,D]2 | [DF]4 E4 | %10
 c2 A2 e2 c2 | [EB]3 [DA] [B,EG]4 | [B,FA][B,GB][B,FA][B,EG] [B,DF]4 | %13
 [B,EG][B,EA][EGB][EAc] B2 =B2 | c2 d2 e2 c2 | B4 z4 | [CF][CF][Fd][Ec] [DB][CA][A,DF][B,DG] | %17
[M:7/8] [A,DF]- [A,DF]3 [G,E]3 |] %18
V:2
 z4 z2 [E,G,]2 | [E,G,B,]2 [E,G,B,]2 [E,B,E]2 [E,G,]2 | [E,G,B,]2 [E,G,B,]2 [E,B,E]4 | %3
 [B,,A,][B,,G,][B,,A,][B,,G,] [B,,F,]2 [B,,A,]2 |[M:3/4] [E,G,E]4 [E,B,E]2 |[M:1/4] [E,A,]2 | %6
[M:4/4] [E,G,B,]2 [E,G,B,]2 [E,B,E]2 [E,G,]2 | [E,G,B,]2 [E,G,B,]2 [E,B,E]4 | %8
 [B,,A,][B,,G,][B,,A,][B,,G,] [B,,F,]2 [B,,F,]2 | [B,,A,]4 [E,G,]4 | %10
 [A,E]2 [A,CE]2 [A,CE]2 [A,E]2 | G,3 F, E,4 | D,D,B,,B,, D,2 B,,2 | E,E,B,,B,, E,4 | %14
 [A,EA]2 [A,DA]2 [A,CA]2 [A,E]2 | B,4[K:bass] z4 | %16
 [A,,A,][A,,A,][A,,A,][A,,G,] [B,,F,][B,,F,]B,,B,, |[M:7/8] B,,- B,,3 E,3 |] %18
V:3
 x8 | x8 | x8 | x8 |[M:3/4] x6 |[M:1/4] x2 |[M:4/4] x8 | x8 | x8 | x8 | x8 | B,4 z4 | x8 | %13
 z4 [EG]4 | x8 | z2 z A G4 | x8 |[M:7/8] x7 |] %18
V:4
 x8 | x8 | x8 | x8 |[M:3/4] x6 |[M:1/4] x2 |[M:4/4] x8 | x8 | x8 | x8 | x8 | x8 | x8 | x8 | x8 | %15
 z2 D2 z4 | x8 |[M:7/8] x7 |] %18
V:5
 x8 | x8 | x8 | x8 |[M:3/4] x6 |[M:1/4] x2 |[M:4/4] x8 | x8 | x8 | x8 | x8 | x8 | x8 | x8 | x8 | %15
 [G,E]2[K:bass] F,2 [E,B,E]4 | x8 |[M:7/8] x7 |] %18

